icons/radar-fill.svg

<svg xmlns="http://www.w3.org/2000/svg" width="24" height="24" fill="none"><g clip-path="url(#a)"><g><path fill="#121212" d="M14.368 4.39801L10.884 10.433L12.616 11.433L16.1 5.39801C20.27 8.17001 22.406 12.478 20.66 15.5C18.8 18.722 13.471 18.855 8.74999 16.13C4.02899 13.402 1.47999 8.72101 3.33999 5.50001C5.08499 2.47701 9.88299 2.17301 14.368 4.39801ZM15.884 1.77301L17.616 2.77301L16.116 5.37101L14.384 4.37101L15.884 1.77301ZM6.73199 20H17V22H5.01699C4.83849 22.0036 4.66232 21.959 4.50696 21.871C4.35161 21.7831 4.22278 21.6549 4.13399 21.5C4.04671 21.3478 4.00079 21.1754 4.00079 21C4.00079 20.8246 4.04671 20.6522 4.13399 20.5L6.38399 16.603L8.11599 17.603L6.73199 20Z"/></g></g><defs><clipPath id="a"><rect width="24" height="24" fill="white"/></clipPath></defs></svg>

<svg width="24" height="24" fill="none" xmlns="http://www.w3.org/2000/svg"><g clip-path="url(#a)"><path d="m14.368 4.398-3.484 6.035 1.732 1L16.1 5.398c4.17 2.772 6.306 7.08 4.56 10.102-1.86 3.222-7.189 3.355-11.91.63C4.029 13.402 1.48 8.721 3.34 5.5c1.745-3.023 6.543-3.327 11.028-1.102Zm1.516-2.625 1.732 1-1.5 2.598-1.732-1 1.5-2.598ZM6.732 20H17v2H5.017a.994.994 0 0 1-1.016-1c0-.175.046-.348.133-.5l2.25-3.897 1.732 1L6.732 20Z" /></g><defs><clipPath id="a"><path fill="#fff" d="M0 0h24v24H0z"/></clipPath></defs></svg>
